_site/img/seguridad-para-evitar-estafas-en-internet.svg

<!DOCTYPE svg PUBLIC "-//W3C//DTD SVG 1.1//EN" "http://www.w3.org/Graphics/SVG/1.1/DTD/svg11.dtd">
<!-- Uploaded to: SVG Repo, www.svgrepo.com, Transformed by: SVG Repo Mixer Tools -->
<svg width="80px" height="80px" viewBox="0 0 24 24" fill="none" xmlns="http://www.w3.org/2000/svg" stroke="#454546">
<g id="SVGRepo_bgCarrier" stroke-width="0"/>
<g id="SVGRepo_tracerCarrier" stroke-linecap="round" stroke-linejoin="round"/>
<g id="SVGRepo_iconCarrier"> <path d="M11.74 17.7499H17.66C17.57 17.8299 17.48 17.8999 17.39 17.9799L13.12 21.1799C11.71 22.2299 9.41001 22.2299 7.99001 21.1799L3.71001 17.9799C2.77001 17.2799 2 15.7299 2 14.5599V7.14986C2 5.92986 2.93001 4.57986 4.07001 4.14986L9.05 2.27986C9.87 1.96986 11.23 1.96986 12.05 2.27986L17.02 4.14986C17.97 4.50986 18.78 5.50986 19.03 6.52986H11.73C11.51 6.52986 11.31 6.53987 11.12 6.53987C9.27 6.64987 8.78999 7.31986 8.78999 9.42986V14.8598C8.79999 17.1598 9.39001 17.7499 11.74 17.7499Z" stroke="#454546" stroke-width="1.5" stroke-linecap="round" stroke-linejoin="round"/> <path d="M8.80005 11.22H22" stroke="#454546" stroke-width="1.5" stroke-miterlimit="10" stroke-linecap="round" stroke-linejoin="round"/> <path d="M22 9.41977V14.9698C21.98 17.1898 21.37 17.7397 19.06 17.7397H11.7401C9.39005 17.7397 8.80005 17.1498 8.80005 14.8398V9.40976C8.80005 7.30976 9.28005 6.63974 11.1301 6.51974C11.3201 6.51974 11.5201 6.50977 11.7401 6.50977H19.06C21.41 6.51977 22 7.09977 22 9.41977Z" stroke="#454546" stroke-width="1.5" stroke-linecap="round" stroke-linejoin="round"/> <path d="M11.3201 15.2598H12.6501" stroke="#454546" stroke-width="1.5" stroke-miterlimit="10" stroke-linecap="round" stroke-linejoin="round"/> <path d="M14.75 15.2598H18.02" stroke="#454546" stroke-width="1.5" stroke-miterlimit="10" stroke-linecap="round" stroke-linejoin="round"/> </g>
</svg>

<svg xmlns="http://www.w3.org/2000/svg" width="80" height="80" fill="none" stroke="#454546" viewBox="0 0 24 24"><g stroke-linecap="round" stroke-linejoin="round" stroke-width="1.5"><path d="M11.74 17.75h5.92c-.09.08-.18.15-.27.23l-4.27 3.2c-1.41 1.05-3.71 1.05-5.13 0l-4.28-3.2C2.77 17.28 2 15.73 2 14.56V7.15c0-1.22.93-2.57 2.07-3l4.98-1.87c.82-.31 2.18-.31 3 0l4.97 1.87c.95.36 1.76 1.36 2.01 2.38h-7.3c-.22 0-.42.01-.61.01-1.85.11-2.33.78-2.33 2.89v5.43c.01 2.3.6 2.89 2.95 2.89Z"/><path stroke-miterlimit="10" d="M8.8 11.22H22"/><path d="M22 9.42v5.55c-.02 2.22-.63 2.77-2.94 2.77h-7.32c-2.35 0-2.94-.59-2.94-2.9V9.41c0-2.1.48-2.77 2.33-2.89.19 0 .39-.01.61-.01h7.32c2.35.01 2.94.59 2.94 2.91Z"/><path stroke-miterlimit="10" d="M11.32 15.26h1.33M14.75 15.26h3.27"/></g></svg>
